X: 1
T: la Rivi\`ere du Regourd
C: Guillaume Lopez
R: waltz
S: Handout at 2014 NEFFA
Z: 2015 John Chambers <jc:trillian.mit.edu>
M: 3/4
L: 1/8
K: Ador
   AB | "Am"c3  B A2 | e2 d2 c2 | "Em"B2 c2 d2 |1,3 c2 B2 :|1,4 B4 :|
|: AB |  "C"c2 B2 A2 | E4    G2 | "Bm"F2 E2 G2 |1,3 F2 E2 :|2,4 F4 :|
